X:1
T:Title
%%score ( 1 2 ) { 3 | 4 }
L:1/8
Q:1/4=115
M:4/4
K:G
V:1 treble nm="Grand Piano, Staff"
V:2 treble 
V:3 bass nm="Choir Pad, Cambridge, SM"
V:4 bass 
V:1
 [B,G]2 [DB]2 AG [DA]2 | GF [DG]6 | [DA]2 [DB]2 [Dd]2 [Dc]2 | [DB]2 [DA]6 | [A,D]2 [B,G]2 GF E2 | %5
w: By~Ralph~Harrison,~1784;~arr~by~S.~S.~Wesley,~1872 * * * *|||||
 [DE]2 [^CA]2 AG [DF]2 | D2 [CE]2 [Ec]2 [DB]2 | [CA]2 [B,G]6- | [B,G]2 z2 z4 |] %9
w: ||||
V:2
 z4 D2 z2 | D2 z2 z4 | x8 | x8 | z4 D2 z2 | z4 E2 z2 | x8 | x8 | x8 |] %9
V:3
 B,2 G,2 A,B, C2 | B,A, B,6 | F,2 G,2 G,2 F,2 | G,2 F,6 | F,2 G,2 G,2 G,2 | ^G,2 A,2 A,2 A,2 | %6
 G,2 G,2 G,2 G,2 | F,2 G,6- | G,2 z2 z4 |] %9
V:4
 G,2 z2 G,2 D,2 | D,2 G,,6 | D,2 z2 B,,2 A,,2 | G,,2 D,6 | D,2 G,,2 B,,2 C,2 | E,2 A,,2 ^C,2 D,2 | %6
 B,,2 C,2 A,,2 D,2 | D,2 G,,6- | G,,2 z2 z4 |] %9

